Newaita-dark/.LP/scalable/weather-few-clouds-night.svg

<svg xmlns="http://www.w3.org/2000/svg" xmlns:xlink="http://www.w3.org/1999/xlink" width="512px" height="512px" viewBox="0 0 512 512" version="1.1">
<defs>
<linearGradient id="linear0" gradientUnits="userSpaceOnUse" x1="254" y1="233.5" x2="254" y2="254.666672" gradientTransform="matrix(1.000095,0,0,1.000095,-0.000000000000227395,209.728363)">
<stop offset="0" style="stop-color:rgb(0%,0%,0%);stop-opacity:0.27451;"/>
<stop offset="1" style="stop-color:rgb(0%,0%,0%);stop-opacity:0;"/>
</linearGradient>
<radialGradient id="radial0" gradientUnits="userSpaceOnUse" cx="450.908936" cy="189.579361" fx="450.908936" fy="189.579361" r="21.166656" gradientTransform="matrix(0.00000278673,-1.250119,-2.250215,-0.00000162462,786.460754,1012.233154)">
<stop offset="0" style="stop-color:rgb(0%,0%,0%);stop-opacity:0.313725;"/>
<stop offset="0.222222" style="stop-color:rgb(0%,0%,0%);stop-opacity:0.27451;"/>
<stop offset="1" style="stop-color:rgb(0%,0%,0%);stop-opacity:0;"/>
</radialGradient>
<radialGradient id="radial1" gradientUnits="userSpaceOnUse" cx="450.908936" cy="189.579361" fx="450.908936" fy="189.579361" r="21.166656" gradientTransform="matrix(-0.00000278673,1.250119,2.250215,0.00000162462,-315.457611,-125.731857)">
<stop offset="0" style="stop-color:rgb(0%,0%,0%);stop-opacity:0.313725;"/>
<stop offset="0.222222" style="stop-color:rgb(0%,0%,0%);stop-opacity:0.27451;"/>
<stop offset="1" style="stop-color:rgb(0%,0%,0%);stop-opacity:0;"/>
</radialGradient>
<radialGradient id="radial2" gradientUnits="userSpaceOnUse" cx="450.908936" cy="189.579361" fx="450.908936" fy="189.579361" r="21.166656" gradientTransform="matrix(-0.00000278673,-1.250119,2.250215,-0.00000162462,-315.457611,1012.233154)">
<stop offset="0" style="stop-color:rgb(0%,0%,0%);stop-opacity:0.313725;"/>
<stop offset="0.222222" style="stop-color:rgb(0%,0%,0%);stop-opacity:0.27451;"/>
<stop offset="1" style="stop-color:rgb(0%,0%,0%);stop-opacity:0;"/>
</radialGradient>
<radialGradient id="radial3" gradientUnits="userSpaceOnUse" cx="450.908936" cy="189.579361" fx="450.908936" fy="189.579361" r="21.166656" gradientTransform="matrix(0.00000278673,1.250119,-2.250215,0.00000162462,786.460754,-125.731865)">
<stop offset="0" style="stop-color:rgb(0%,0%,0%);stop-opacity:0.313725;"/>
<stop offset="0.222222" style="stop-color:rgb(0%,0%,0%);stop-opacity:0.27451;"/>
<stop offset="1" style="stop-color:rgb(0%,0%,0%);stop-opacity:0;"/>
</radialGradient>
<linearGradient id="linear1" gradientUnits="userSpaceOnUse" x1="211.666672" y1="170" x2="211.666672" y2="-126.333344" gradientTransform="matrix(1.000095,0,0,1.000095,0,172.683151)">
<stop offset="0" style="stop-color:rgb(56.470588%,64.313725%,68.235294%);stop-opacity:1;"/>
<stop offset="1" style="stop-color:rgb(69.019608%,74.509804%,77.254902%);stop-opacity:1;"/>
</linearGradient>
<linearGradient id="linear2" gradientUnits="userSpaceOnUse" x1="960" y1="1695.118164" x2="960" y2="815.118103" gradientTransform="matrix(0.264609,0,0,0.264609,0,0)">
<stop offset="0" style="stop-color:rgb(21.568627%,27.843137%,30.980392%);stop-opacity:1;"/>
<stop offset="1" style="stop-color:rgb(27.058824%,35.294118%,39.215686%);stop-opacity:1;"/>
</linearGradient>
</defs>
<g id="surface1">
<path style=" stroke:none;fill-rule:nonzero;fill:url(#linear0);" d="M 105.84375 443.25 L 365.160156 443.25 L 365.160156 464.417969 L 105.84375 464.417969 Z M 105.84375 443.25 "/>
<path style=" stroke:none;fill-rule:nonzero;fill:url(#radial0);" d="M 365.160156 443.25 L 407.496094 443.25 L 407.496094 422.082031 L 365.160156 422.082031 Z M 365.160156 443.25 "/>
<path style=" stroke:none;fill-rule:nonzero;fill:url(#radial1);" d="M 105.84375 443.25 L 63.507812 443.25 L 63.507812 464.417969 L 105.84375 464.417969 Z M 105.84375 443.25 "/>
<path style=" stroke:none;fill-rule:nonzero;fill:url(#radial2);" d="M 105.84375 443.25 L 63.507812 443.25 L 63.507812 422.082031 L 105.84375 422.082031 Z M 105.84375 443.25 "/>
<path style=" stroke:none;fill-rule:nonzero;fill:url(#radial3);" d="M 365.160156 443.25 L 407.496094 443.25 L 407.496094 464.417969 L 365.160156 464.417969 Z M 365.160156 443.25 "/>
<path style=" stroke:none;fill-rule:nonzero;fill:url(#linear1);" d="M 211.6875 46.335938 C 293.523438 46.335938 359.867188 112.679688 359.867188 194.519531 C 359.867188 276.355469 293.523438 342.699219 211.6875 342.699219 C 129.847656 342.699219 63.507812 276.355469 63.507812 194.519531 C 63.507812 112.679688 129.847656 46.335938 211.6875 46.335938 Z M 211.6875 46.335938 "/>
<path style=" stroke:none;fill-rule:nonzero;fill:rgb(100%,100%,100%);fill-opacity:0.392157;" d="M 211.6875 46.335938 C 129.59375 46.335938 63.507812 112.425781 63.507812 194.519531 C 63.507812 195.402344 63.515625 196.285156 63.53125 197.164062 C 64.933594 116.304688 130.480469 51.628906 211.6875 51.628906 C 292.894531 51.628906 358.441406 116.304688 359.84375 197.164062 C 359.859375 196.285156 359.867188 195.402344 359.867188 194.519531 C 359.867188 112.425781 293.777344 46.335938 211.6875 46.335938 Z M 211.6875 46.335938 "/>
<path style=" stroke:none;fill-rule:nonzero;fill:rgb(12.941177%,12.941177%,12.941177%);fill-opacity:1;" d="M 211.6875 44.839844 C 128.789062 44.839844 62.007812 111.621094 62.007812 194.519531 C 62.007812 277.414062 128.789062 344.199219 211.6875 344.199219 C 294.582031 344.199219 361.367188 277.414062 361.367188 194.519531 C 361.367188 111.621094 294.582031 44.839844 211.6875 44.839844 Z M 211.6875 47.839844 C 292.972656 47.839844 358.367188 113.230469 358.367188 194.519531 C 358.367188 275.804688 292.972656 341.199219 211.6875 341.199219 C 130.398438 341.199219 65.007812 275.804688 65.007812 194.519531 C 65.007812 113.230469 130.398438 47.839844 211.6875 47.839844 Z M 211.6875 47.839844 "/>
<path style=" stroke:none;fill-rule:nonzero;fill:rgb(0%,0%,0%);fill-opacity:0.196078;" d="M 211.6875 342.699219 C 129.59375 342.699219 63.507812 276.609375 63.507812 194.519531 C 63.507812 193.632812 63.515625 192.753906 63.53125 191.871094 C 64.933594 272.734375 130.480469 337.40625 211.6875 337.40625 C 292.894531 337.40625 358.441406 272.734375 359.84375 191.871094 C 359.859375 192.753906 359.867188 193.632812 359.867188 194.519531 C 359.867188 276.609375 293.777344 342.699219 211.6875 342.699219 Z M 211.6875 342.699219 "/>
<path style=" stroke:none;fill-rule:nonzero;fill:url(#linear2);" d="M 349.285156 215.6875 C 302.742188 215.6875 262.746094 242.722656 244.085938 282.011719 C 237.128906 280.175781 229.820312 279.191406 222.269531 279.191406 C 186.046875 279.191406 155.285156 301.714844 143.144531 333.574219 C 132.683594 325.992188 119.804688 321.53125 105.84375 321.53125 C 70.660156 321.53125 42.335938 349.855469 42.335938 385.035156 C 42.335938 420.21875 70.660156 448.542969 105.84375 448.542969 C 108.457031 448.542969 111.03125 448.382812 113.5625 448.078125 C 114.472656 448.378906 115.433594 448.542969 116.429688 448.542969 L 349.285156 448.542969 C 349.289062 448.542969 349.296875 448.542969 349.304688 448.542969 C 413.796875 448.53125 465.710938 396.609375 465.710938 332.113281 C 465.710938 267.613281 413.785156 215.6875 349.285156 215.6875 Z M 349.285156 215.6875 "/>
<path style=" stroke:none;fill-rule:nonzero;fill:rgb(100%,100%,100%);fill-opacity:0.392157;" d="M 349.285156 215.6875 C 302.742188 215.6875 262.746094 242.722656 244.085938 282.011719 C 237.128906 280.175781 229.820312 279.191406 222.269531 279.191406 C 186.046875 279.191406 155.285156 301.714844 143.144531 333.574219 C 132.683594 325.992188 119.804688 321.53125 105.84375 321.53125 C 70.660156 321.53125 42.335938 349.855469 42.335938 385.035156 C 42.335938 385.921875 42.359375 386.804688 42.394531 387.683594 C 43.773438 353.738281 71.546875 326.824219 105.84375 326.824219 C 119.804688 326.824219 132.683594 331.285156 143.144531 338.867188 C 155.285156 307.007812 186.046875 284.484375 222.269531 284.484375 C 229.820312 284.484375 237.128906 285.46875 244.085938 287.304688 C 262.746094 248.015625 302.742188 220.980469 349.285156 220.980469 C 412.898438 220.980469 464.28125 271.492188 465.679688 334.761719 C 465.699219 333.882812 465.710938 333 465.710938 332.113281 C 465.710938 267.613281 413.785156 215.6875 349.285156 215.6875 Z M 349.285156 215.6875 "/>
<path style=" stroke:none;fill-rule:nonzero;fill:rgb(0%,0%,0%);fill-opacity:0.235294;" d="M 465.683594 329.699219 C 464.410156 393.070312 412.988281 443.703125 349.304688 443.714844 C 349.296875 443.714844 349.289062 443.714844 349.285156 443.714844 L 116.429688 443.714844 C 115.433594 443.714844 114.472656 443.550781 113.5625 443.25 C 111.03125 443.554688 108.457031 443.714844 105.84375 443.714844 C 71.46875 443.714844 43.648438 416.675781 42.386719 382.621094 C 42.355469 383.421875 42.335938 384.226562 42.335938 385.035156 C 42.335938 420.21875 70.660156 448.542969 105.84375 448.542969 C 108.457031 448.542969 111.03125 448.382812 113.5625 448.078125 C 114.472656 448.378906 115.433594 448.542969 116.429688 448.542969 L 349.285156 448.542969 C 349.289062 448.542969 349.296875 448.542969 349.304688 448.542969 C 413.796875 448.53125 465.710938 396.609375 465.710938 332.113281 C 465.710938 331.308594 465.699219 330.503906 465.683594 329.699219 Z M 465.683594 329.699219 "/>
<path style="fill:none;stroke-width:11.338583;stroke-linecap:round;stroke-linejoin:miter;stroke:rgb(12.941177%,12.941177%,12.941177%);stroke-opacity:1;stroke-miterlimit:4;" d="M 1320.004778 815.11775 C 1144.111414 815.11775 992.959744 917.287953 922.440012 1065.767639 C 896.148272 1058.829336 868.527921 1055.109224 839.992304 1055.109224 C 703.101061 1055.109224 586.847579 1140.228917 540.966204 1260.630619 C 501.432639 1231.976903 452.761181 1215.118303 400.000553 1215.118303 C 267.036094 1215.118303 159.994316 1322.160081 159.994316 1455.109777 C 159.994316 1588.074237 267.036094 1695.116014 400.000553 1695.116014 C 409.876563 1695.116014 419.60495 1694.510758 429.170951 1693.359295 C 432.610578 1694.495996 436.242115 1695.116014 440.006513 1695.116014 L 1320.004778 1695.116014 C 1320.01954 1695.116014 1320.049065 1695.116014 1320.07859 1695.116014 C 1563.804938 1695.071727 1759.996529 1498.850612 1759.996529 1255.109501 C 1759.996529 1011.353628 1563.760651 815.11775 1320.004778 815.11775 Z M 1320.004778 815.11775 " transform="matrix(0.264609,0,0,0.264609,0,0)"/>
</g>
</svg>

<svg xmlns="http://www.w3.org/2000/svg" width="512" height="512"><defs><linearGradient id="a" gradientUnits="userSpaceOnUse" x1="254" y1="233.5" x2="254" y2="254.667" gradientTransform="matrix(1.0001 0 0 1.0001 0 209.728)"><stop offset="0" stop-opacity=".275"/><stop offset="1" stop-opacity="0"/></linearGradient><radialGradient id="b" gradientUnits="userSpaceOnUse" cx="450.909" cy="189.579" fx="450.909" fy="189.579" r="21.167" gradientTransform="matrix(0 -1.25012 -2.25021 0 786.46 1012.233)"><stop offset="0" stop-opacity=".314"/><stop offset=".222" stop-opacity=".275"/><stop offset="1" stop-opacity="0"/></radialGradient><radialGradient id="c" gradientUnits="userSpaceOnUse" cx="450.909" cy="189.579" fx="450.909" fy="189.579" r="21.167" gradientTransform="matrix(0 1.25012 2.25021 0 -315.458 -125.732)"><stop offset="0" stop-opacity=".314"/><stop offset=".222" stop-opacity=".275"/><stop offset="1" stop-opacity="0"/></radialGradient><radialGradient id="d" gradientUnits="userSpaceOnUse" cx="450.909" cy="189.579" fx="450.909" fy="189.579" r="21.167" gradientTransform="matrix(0 -1.25012 2.25021 0 -315.458 1012.233)"><stop offset="0" stop-opacity=".314"/><stop offset=".222" stop-opacity=".275"/><stop offset="1" stop-opacity="0"/></radialGradient><radialGradient id="e" gradientUnits="userSpaceOnUse" cx="450.909" cy="189.579" fx="450.909" fy="189.579" r="21.167" gradientTransform="matrix(0 1.25012 -2.25021 0 786.46 -125.732)"><stop offset="0" stop-opacity=".314"/><stop offset=".222" stop-opacity=".275"/><stop offset="1" stop-opacity="0"/></radialGradient><linearGradient id="f" gradientUnits="userSpaceOnUse" x1="211.667" y1="170" x2="211.667" y2="-126.333" gradientTransform="matrix(1.0001 0 0 1.0001 0 172.683)"><stop offset="0" stop-color="#90a4ae"/><stop offset="1" stop-color="#b0bec5"/></linearGradient><linearGradient id="g" gradientUnits="userSpaceOnUse" x1="960" y1="1695.118" x2="960" y2="815.118" gradientTransform="rotate(.158) scale(.26461)"><stop offset="0" stop-color="#37474f"/><stop offset="1" stop-color="#455a64"/></linearGradient></defs><path d="M105.844 443.25H365.16v21.168H105.844zm0 0" fill="url(#a)"/><path d="M365.16 443.25h42.336v-21.168H365.16zm0 0" fill="url(#b)"/><path d="M105.844 443.25H63.508v21.168h42.336zm0 0" fill="url(#c)"/><path d="M105.844 443.25H63.508v-21.168h42.336zm0 0" fill="url(#d)"/><path d="M365.16 443.25h42.336v21.168H365.16zm0 0" fill="url(#e)"/><path d="M211.688 46.336c81.835 0 148.18 66.344 148.18 148.184 0 81.835-66.345 148.18-148.18 148.18-81.84 0-148.18-66.345-148.18-148.18 0-81.84 66.34-148.184 148.18-148.184zm0 0" fill="url(#f)"/><path d="M211.688 46.336c-82.094 0-148.18 66.09-148.18 148.184 0 .882.008 1.765.023 2.644 1.403-80.86 66.95-145.535 148.156-145.535 81.208 0 146.754 64.676 148.157 145.535.015-.879.023-1.762.023-2.644 0-82.094-66.09-148.184-148.18-148.184zm0 0" fill="#fff" fill-opacity=".392"/><path d="M211.688 44.84c-82.899 0-149.68 66.781-149.68 149.68 0 82.894 66.781 149.68 149.68 149.68 82.894 0 149.68-66.786 149.68-149.68 0-82.899-66.786-149.68-149.68-149.68zm0 3c81.285 0 146.68 65.39 146.68 146.68 0 81.285-65.395 146.68-146.68 146.68-81.29 0-146.68-65.395-146.68-146.68 0-81.29 65.39-146.68 146.68-146.68zm0 0" fill="#212121"/><path d="M211.688 342.7c-82.094 0-148.18-66.09-148.18-148.18 0-.887.008-1.766.023-2.649 1.403 80.863 66.95 145.535 148.156 145.535 81.208 0 146.754-64.672 148.157-145.535.015.883.023 1.762.023 2.649 0 82.09-66.09 148.18-148.18 148.18zm0 0" fill-opacity=".196"/><path d="M349.285 215.688c-46.543 0-86.539 27.035-105.2 66.324a85.378 85.378 0 0 0-21.815-2.82c-36.223 0-66.985 22.523-79.125 54.382-10.461-7.582-23.34-12.043-37.301-12.043-35.184 0-63.508 28.324-63.508 63.504 0 35.184 28.324 63.508 63.508 63.508 2.613 0 5.187-.16 7.719-.465.91.3 1.87.465 2.867.465h232.875c64.492-.012 116.406-51.934 116.406-116.43 0-64.5-51.926-116.425-116.426-116.425zm0 0" fill="url(#g)"/><path d="M349.285 215.688c-46.543 0-86.539 27.035-105.2 66.324a85.378 85.378 0 0 0-21.815-2.82c-36.223 0-66.985 22.523-79.125 54.382-10.461-7.582-23.34-12.043-37.301-12.043-35.184 0-63.508 28.324-63.508 63.504 0 .887.023 1.77.059 2.649 1.378-33.946 29.152-60.86 63.449-60.86 13.96 0 26.84 4.461 37.3 12.043 12.141-31.86 42.903-54.383 79.126-54.383 7.55 0 14.859.985 21.816 2.82 18.66-39.288 58.656-66.324 105.2-66.324 63.612 0 114.995 50.512 116.394 113.782.02-.88.03-1.762.03-2.649 0-64.5-51.925-116.425-116.425-116.425zm0 0" fill="#fff" fill-opacity=".392"/><path d="M465.684 329.7c-1.274 63.37-52.696 114.003-116.38 114.015H116.43a9.11 9.11 0 0 1-2.868-.465 64.545 64.545 0 0 1-7.718.465c-34.375 0-62.196-27.04-63.457-61.094-.032.8-.051 1.606-.051 2.414 0 35.184 28.324 63.508 63.508 63.508 2.613 0 5.187-.16 7.719-.465.91.3 1.87.465 2.867.465h232.875c64.492-.012 116.406-51.934 116.406-116.43 0-.804-.012-1.61-.027-2.414zm0 0" fill-opacity=".235"/><path d="M349.285 215.687c-46.543 0-86.539 27.036-105.2 66.325a85.378 85.378 0 0 0-21.815-2.82c-36.223 0-66.985 22.523-79.125 54.382-10.461-7.582-23.34-12.043-37.301-12.043-35.184 0-63.508 28.324-63.508 63.504 0 35.184 28.324 63.508 63.508 63.508 2.613 0 5.187-.16 7.718-.465.91.3 1.872.465 2.868.465h232.875c64.492-.012 116.406-51.934 116.406-116.43 0-64.5-51.926-116.426-116.426-116.426zm0 0" fill="none" stroke-width="3.0004127900000004" stroke-linecap="round" stroke="#212121"/></svg>
